ibeto-front-end/src/components/images/PhaseOne.svg

<?xml version="1.0"?><svg fill="#941C66" xmlns="http://www.w3.org/2000/svg"  viewBox="0 0 100 100" width="200px" height="200px">    <path d="M 50.498047 12.345703 C 36.289047 12.345703 24.728516 23.906234 24.728516 38.115234 C 24.728516 47.584234 29.853391 56.179844 38.150391 60.714844 L 37.693359 64.445312 C 37.688359 64.485312 37.685547 64.525406 37.685547 64.566406 C 37.685547 67.065752 39.049285 69.319255 41.171875 70.523438 C 40.300688 71.257388 39.732422 72.361496 39.732422 73.613281 C 39.732422 75.165698 40.597732 76.499394 41.847656 77.162109 C 41.457175 77.731906 41.228516 78.418667 41.228516 79.160156 L 41.228516 80.066406 C 41.228516 81.952965 42.712193 83.486285 44.572266 83.59375 C 45.005564 85.899895 47.726257 87.625 51.128906 87.625 C 53.213176 87.625 57.392 86.623864 57.830078 83.597656 C 59.716701 83.517772 61.228516 81.971477 61.228516 80.066406 L 61.228516 79.160156 C 61.228516 77.204156 59.637641 75.613281 57.681641 75.613281 L 44.775391 75.613281 C 44.768711 75.613281 44.76253 75.615197 44.755859 75.615234 L 43.591797 75.615234 C 42.566797 75.615234 41.732422 74.718234 41.732422 73.615234 C 41.732422 72.512234 42.566797 71.615234 43.591797 71.615234 L 57.917969 71.615234 C 58.942969 71.615234 59.777344 72.512234 59.777344 73.615234 C 59.777344 74.186234 59.776141 74.185047 59.369141 74.748047 C 59.045141 75.195047 59.14675 75.820531 59.59375 76.144531 C 60.04075 76.467531 60.664281 76.368875 60.988281 75.921875 C 61.687281 74.956875 61.777344 74.764281 61.777344 73.613281 C 61.777344 71.407281 60.046969 69.613281 57.917969 69.613281 L 43.591797 69.613281 C 43.569034 69.613281 43.548061 69.620685 43.525391 69.621094 C 43.408276 69.419826 43.231459 69.2528 42.994141 69.171875 C 41.033141 68.504875 39.709547 66.682 39.685547 64.625 L 40.21875 60.273438 C 40.27075 59.857438 40.056594 59.452719 39.683594 59.261719 C 31.693594 55.167719 26.728516 47.064234 26.728516 38.115234 C 26.728516 25.009234 37.392047 14.345703 50.498047 14.345703 C 63.835047 14.345703 74.6875 25.02825 74.6875 38.15625 C 74.6875 46.81425 69.4365 55.099672 61.3125 59.263672 C 60.9395 59.454672 60.725344 59.858391 60.777344 60.275391 L 61.310547 64.626953 C 61.294547 65.909953 60.781422 67.113438 59.857422 68.023438 C 59.463422 68.411438 59.459656 69.045453 59.847656 69.439453 C 60.235656 69.832453 60.867719 69.837219 61.261719 69.449219 C 62.582719 68.146219 63.310547 66.413359 63.310547 64.568359 C 63.310547 64.528359 63.307734 64.486312 63.302734 64.445312 L 62.845703 60.714844 C 71.277703 56.113844 76.6875 47.33425 76.6875 38.15625 C 76.6875 23.92425 64.938047 12.345703 50.498047 12.345703 z M 51.728516 19.363281 C 51.452516 19.363281 51.228516 19.587281 51.228516 19.863281 C 51.228516 20.139281 51.452516 20.363281 51.728516 20.363281 C 52.714516 20.363281 53.705875 20.445469 54.671875 20.605469 C 60.267875 21.533469 65.139172 25.122031 67.701172 30.207031 C 67.789172 30.381031 67.965437 30.482422 68.148438 30.482422 C 68.224437 30.482422 68.302047 30.464734 68.373047 30.427734 C 68.620047 30.303734 68.719703 30.004812 68.595703 29.757812 C 65.890703 24.388813 60.745937 20.598141 54.835938 19.619141 C 53.815938 19.450141 52.769516 19.363281 51.728516 19.363281 z M 69.451172 32.660156 C 69.386797 32.652453 69.319906 32.656281 69.253906 32.675781 C 68.987906 32.752781 68.834156 33.028922 68.910156 33.294922 C 69.369156 34.893922 69.603516 36.556281 69.603516 38.238281 C 69.603516 38.514281 69.827516 38.738281 70.103516 38.738281 C 70.380516 38.738281 70.603516 38.516281 70.603516 38.238281 C 70.603516 36.463281 70.356094 34.705578 69.871094 33.017578 C 69.814094 32.818828 69.644297 32.683266 69.451172 32.660156 z M 56.462891 43.160156 C 56.173391 43.143906 55.864734 43.202938 55.552734 43.335938 C 54.714734 43.693937 54.035344 44.511219 53.902344 45.324219 C 53.675344 46.715219 54.132672 48.207891 55.138672 49.462891 C 54.429672 50.023891 53.590172 50.3625 52.701172 50.4375 C 51.707172 50.5245 50.591172 50.107656 49.701172 49.347656 C 50.386172 48.263656 50.796016 47.106391 51.041016 46.150391 C 51.312016 45.091391 51.181344 44.311031 50.652344 43.832031 C 50.248344 43.464031 49.685172 43.350625 49.076172 43.515625 C 48.264172 43.731625 47.531922 44.394953 47.294922 45.126953 C 46.863922 46.458953 47.208281 47.967672 48.238281 49.263672 C 48.291281 49.329672 48.344391 49.395984 48.400391 49.458984 C 48.025391 49.935984 47.579734 50.376094 47.052734 50.746094 C 46.802734 50.922094 46.538578 51.074219 46.267578 51.199219 C 45.737578 49.890219 45.097703 48.640594 44.345703 47.433594 C 43.612703 46.256594 42.600484 45.646594 41.646484 45.808594 C 41.236484 45.876594 40.839797 46.086641 40.466797 46.431641 C 39.739797 47.104641 39.3835 47.935891 39.4375 48.837891 C 39.5025 49.921891 40.165859 50.994203 41.255859 51.783203 C 42.480859 52.669203 44.121641 52.897562 45.681641 52.476562 C 47.144641 56.567563 47.564969 61.295313 47.042969 67.195312 C 47.017969 67.470312 47.221094 67.712328 47.496094 67.736328 C 47.511094 67.738328 47.526969 67.738281 47.542969 67.738281 C 47.798969 67.738281 48.014969 67.54225 48.042969 67.28125 C 48.578969 61.22725 48.141906 56.363719 46.628906 52.136719 C 46.974906 51.979719 47.311859 51.789453 47.630859 51.564453 C 48.212859 51.156453 48.704094 50.675156 49.121094 50.160156 C 50.201094 51.054156 51.552062 51.535641 52.789062 51.431641 C 53.902062 51.338641 54.948266 50.908266 55.822266 50.197266 C 55.832266 50.207266 55.842516 50.216563 55.853516 50.226562 C 56.335516 50.672563 56.863922 51.040266 57.419922 51.322266 C 57.325964 51.490194 57.247922 51.646658 57.158203 51.8125 C 56.97211 51.764026 56.772302 51.817679 56.664062 52.048828 C 56.160069 53.125983 55.768511 54.213119 55.445312 55.308594 C 55.395593 55.422589 55.269348 55.694626 55.244141 55.753906 C 55.19823 55.862307 55.201535 55.975074 55.230469 56.080078 C 54.313796 59.604954 54.177807 63.229209 54.25 66.988281 C 54.262 67.631281 55.262 67.633281 55.25 66.988281 C 55.176727 63.1295 55.303661 59.375572 56.347656 55.748047 C 56.887 54.515286 57.581898 53.081451 58.359375 51.707031 C 59.323375 52.014031 60.329437 52.066078 61.273438 51.830078 C 61.575437 51.688078 64.237688 50.393547 64.554688 48.560547 C 64.641687 48.053547 64.579156 47.284094 63.785156 46.496094 C 63.332156 46.045094 62.776734 45.869328 62.177734 45.986328 C 60.763734 46.264328 59.202969 48.304031 57.917969 50.457031 C 57.433969 50.214031 56.967016 49.894953 56.541016 49.501953 C 56.581016 49.456953 56.620203 49.409281 56.658203 49.363281 C 57.660203 48.152281 58.144328 46.593172 57.986328 45.076172 C 57.928328 44.524172 57.857672 43.838641 57.263672 43.431641 C 57.023672 43.267641 56.752391 43.176406 56.462891 43.160156 z M 56.363281 44.158203 C 56.477281 44.158203 56.592359 44.184859 56.693359 44.255859 C 56.891359 44.391859 56.938281 44.708547 56.988281 45.185547 C 57.118281 46.430547 56.716766 47.720562 55.884766 48.726562 C 55.875766 48.737562 55.866422 48.750719 55.857422 48.761719 C 55.068422 47.743719 54.710719 46.569328 54.886719 45.486328 C 54.964719 45.016328 55.427359 44.475859 55.943359 44.255859 C 56.063359 44.203859 56.213281 44.158203 56.363281 44.158203 z M 49.603516 44.443359 C 49.735516 44.443359 49.871516 44.475266 49.978516 44.572266 C 50.268516 44.836266 50.188313 45.441344 50.070312 45.902344 C 49.863312 46.711344 49.527328 47.681609 48.986328 48.599609 C 48.194328 47.580609 47.923141 46.429547 48.244141 45.435547 C 48.376141 45.028547 48.853031 44.609422 49.332031 44.482422 C 49.413031 44.460422 49.507516 44.443359 49.603516 44.443359 z M 41.953125 46.783203 C 42.546125 46.783203 43.130141 47.375891 43.494141 47.962891 C 44.206141 49.105891 44.812359 50.288297 45.318359 51.529297 C 44.077359 51.832297 42.777844 51.654609 41.839844 50.974609 C 40.994844 50.362609 40.482547 49.563297 40.435547 48.779297 C 40.399547 48.178297 40.638484 47.635016 41.146484 47.166016 C 41.373484 46.955016 41.596547 46.830922 41.810547 46.794922 C 41.858547 46.786922 41.906125 46.783203 41.953125 46.783203 z M 62.5625 46.953125 C 62.748172 46.961141 62.913125 47.042781 63.078125 47.207031 C 63.475125 47.601031 63.635406 47.988625 63.566406 48.390625 C 63.373406 49.512625 61.536453 50.600578 60.939453 50.892578 C 60.286453 51.051578 59.577094 51.024125 58.871094 50.828125 C 60.087094 48.816125 61.388141 47.16075 62.369141 46.96875 C 62.435891 46.95525 62.500609 46.950453 62.5625 46.953125 z M 44.775391 77.613281 L 57.228516 77.613281 L 57.681641 77.613281 C 58.534641 77.613281 59.228516 78.307156 59.228516 79.160156 L 59.228516 80.066406 C 59.228516 80.919406 58.534641 81.613281 57.681641 81.613281 L 44.775391 81.613281 C 43.922391 81.613281 43.228516 80.919406 43.228516 80.066406 L 43.228516 79.160156 C 43.228516 78.307156 43.922391 77.613281 44.775391 77.613281 z M 46.673828 83.613281 L 55.759766 83.613281 C 55.150698 85.126788 52.071083 85.625 51.128906 85.625 C 49.019517 85.625 47.201436 84.753587 46.673828 83.613281 z"/></svg>

<svg xmlns="http://www.w3.org/2000/svg" fill="#941C66" viewBox="0 0 100 100" width="200" height="200" xmlns:v="https://vecta.io/nano"><path d="M50.498 12.346c-14.209 0-25.77 11.561-25.77 25.77 0 9.469 5.125 18.065 13.422 22.6l-.457 3.73a.97.97 0 0 0-.008.121c0 2.499 1.364 4.753 3.486 5.957-.871.734-1.439 1.838-1.439 3.09 0 1.552.865 2.886 2.115 3.549a3.52 3.52 0 0 0-.619 1.998v.906c0 1.887 1.484 3.42 3.344 3.527.433 2.306 3.154 4.031 6.557 4.031 2.084 0 6.263-1.001 6.701-4.027 1.887-.08 3.398-1.626 3.398-3.531v-.906a3.55 3.55 0 0 0-3.547-3.547H44.775l-1.184.002c-1.025 0-1.859-.897-1.859-2s.834-2 1.859-2h14.326c1.025 0 1.859.897 1.859 2 0 .571-.001.57-.408 1.133a1 1 0 0 0 1.619 1.174c.699-.965.789-1.158.789-2.309 0-2.206-1.73-4-3.859-4H43.592c-.023 0-.044.007-.066.008-.117-.201-.294-.368-.531-.449-1.961-.667-3.285-2.49-3.309-4.547l.533-4.352a1 1 0 0 0-.535-1.012c-7.99-4.094-12.955-12.197-12.955-21.146 0-13.106 10.664-23.77 23.77-23.77 13.337 0 24.189 10.683 24.189 23.811 0 8.658-5.251 16.943-13.375 21.107-.373.191-.587.595-.535 1.012l.533 4.352a4.82 4.82 0 0 1-1.453 3.396 1 1 0 1 0 1.404 1.426 6.81 6.81 0 0 0 2.049-4.881 1.03 1.03 0 0 0-.008-.123l-.457-3.73c8.432-4.601 13.842-13.381 13.842-22.559 0-14.232-11.749-25.811-26.189-25.811zm1.23 7.018a.5.5 0 1 0 0 1c.986 0 1.977.082 2.943.242 5.596.928 10.467 4.517 13.029 9.602a.5.5 0 0 0 .447.275c.076 0 .154-.018.225-.055a.5.5 0 0 0 .223-.67c-2.705-5.369-7.85-9.16-13.76-10.139-1.02-.169-2.066-.256-3.107-.256zM69.451 32.66a.49.49 0 0 0-.197.016.5.5 0 0 0-.344.619 17.91 17.91 0 0 1 .693 4.943.5.5 0 1 0 1 0c0-1.775-.247-3.533-.732-5.221a.5.5 0 0 0-.42-.357zm-12.988 10.5c-.289-.016-.598.043-.91.176-.838.358-1.517 1.175-1.65 1.988-.227 1.391.23 2.884 1.236 4.139a4.53 4.53 0 0 1-2.437.975c-.994.087-2.11-.33-3-1.09.685-1.084 1.095-2.241 1.34-3.197.271-1.059.14-1.839-.389-2.318-.404-.368-.967-.481-1.576-.316-.812.216-1.544.879-1.781 1.611-.431 1.332-.087 2.841.943 4.137.053.066.106.132.162.195a6.38 6.38 0 0 1-1.348 1.287 5.02 5.02 0 0 1-.785.453c-.53-1.309-1.17-2.559-1.922-3.766-.733-1.177-1.745-1.787-2.699-1.625-.41.068-.807.278-1.18.623-.727.673-1.083 1.504-1.029 2.406.065 1.084.728 2.156 1.818 2.945 1.225.886 2.866 1.114 4.426.693 1.463 4.091 1.883 8.819 1.361 14.719a.5.5 0 0 0 .453.541c.015.002.031.002.047.002.256 0 .472-.196.5-.457.536-6.054.099-10.918-1.414-15.145a6.14 6.14 0 0 0 1.002-.572 7.35 7.35 0 0 0 1.49-1.404c1.08.894 2.431 1.375 3.668 1.271a5.52 5.52 0 0 0 3.033-1.234c.01.01.02.019.031.029a6.92 6.92 0 0 0 1.566 1.096c-.094.168-.172.324-.262.49a.4.4 0 0 0-.494.236 23 23 0 0 0-1.219 3.26l-.201.445a.49.49 0 0 0-.014.326c-.917 3.525-1.053 7.149-.98 10.908.012.643 1.012.645 1 0-.073-3.859.054-7.613 1.098-11.24a45.23 45.23 0 0 1 2.012-4.041c.964.307 1.97.359 2.914.123.302-.142 2.964-1.437 3.281-3.27.087-.507.024-1.276-.77-2.064-.453-.451-1.008-.627-1.607-.51-1.414.278-2.975 2.318-4.26 4.471-.484-.243-.951-.562-1.377-.955.04-.045.079-.093.117-.139 1.002-1.211 1.486-2.77 1.328-4.287-.058-.552-.129-1.238-.723-1.645a1.56 1.56 0 0 0-.801-.271zm-.1.998c.114 0 .229.027.33.098.198.136.245.453.295.93.13 1.245-.272 2.535-1.104 3.541-.009.011-.018.024-.027.035-.789-1.018-1.147-2.192-.971-3.275.078-.47.541-1.01 1.057-1.23a1.09 1.09 0 0 1 .42-.098zm-6.76.285c.132 0 .268.032.375.129.29.264.21.869.092 1.33-.207.809-.543 1.779-1.084 2.697-.792-1.019-1.063-2.17-.742-3.164.132-.407.609-.826 1.088-.953a1.05 1.05 0 0 1 .271-.039zm-7.65 2.34c.593 0 1.177.593 1.541 1.18a23.5 23.5 0 0 1 1.824 3.566c-1.241.303-2.541.125-3.479-.555-.845-.612-1.357-1.411-1.404-2.195-.036-.601.203-1.144.711-1.613.227-.211.45-.335.664-.371.048-.008.096-.012.143-.012zm20.609.17c.186.008.351.09.516.254.397.394.557.782.488 1.184-.193 1.122-2.03 2.21-2.627 2.502-.653.159-1.362.132-2.068-.064 1.216-2.012 2.517-3.667 3.498-3.859a.8.8 0 0 1 .193-.016zm-17.787 30.66h12.453.453a1.55 1.55 0 0 1 1.547 1.547v.906a1.55 1.55 0 0 1-1.547 1.547H44.775a1.55 1.55 0 0 1-1.547-1.547v-.906a1.55 1.55 0 0 1 1.547-1.547zm1.898 6h9.086c-.609 1.514-3.689 2.012-4.631 2.012-2.109 0-3.927-.871-4.455-2.012z"/></svg>
